X: 705
T: Ey Gonca-i Bağ-ı Cihân
C: Dede Efendi
O: Turkey
F: http://compmusic.upf.edu/node/140
N: neva--nakis--agir_aksaksemai--ey_gonca-i--dede_efendi
N: makam= neva
N: form= nakis
N: usul= agir_aksaksemai = 10/4
M: 10/4
L: 1/16
K: C _2/4B ^3/4f  
Q: 1/4=72
%%MIDI tuningsystem comma53
d8 e2d2 d6_1/4B2 c2d2 c2B2 c4 d4 z4  | \
w:   | 
z4 d2e2 ^f4 g2f2 g2f2 e2e2 d2c2 d2e2 f2e2 f2g2  | 
w:   | 
^f2e2 f2g2 f2e2 f2e2 f2a2 g2f2 e2e2 =f2e2 d2e2 f2d6 z2z2 d4 f2e2 ded2 c2d2 c2_1/4B2 z2g2 f2ga g3f  | 
w:   | 
e2=f2 e2d2 c4 d2d2 d4 d2d4_1/4B2 c2d2 c2B2 c4  | \
w:   | 
d6z2 g8 g2^f2 g6f2 g2f2 g2a2 c'2_1/4b2  | 
w:   | 
a2g2 ^f2e2 f2g2 f2e2 f2e2 f2g2 f2e2 e2=f2 e2d2 e2f2  | \
w:   | 
d6z2 z8 d4 d6e2 e2d2 c2_1/4B2 d2c2  | 
w:   | 
_1/4B2c2 d2c4z2 d4 a2a2 g2=f2 e2d2 c2B2 cdc2 ded2  | \
w:   | 
c4 d2d2 c2c2 _1/4B4 A2A4A2 c2B2 A2G2 =f3e edd^c  | 
w:   | 
d8 z4 a8 a4 _b3a g2a2 g2b2 a2g2  | \
w:   | 
g2=f3ed6 z2d8d4d2 ^c2d2 c2d2 _7/8e2d2  | 
w:   | 
^c2_7/8B3AG6 z2=c6 _1/4B2c2 B2c6 d2e2 d2c2  | \
w:   | 
_1/4B2d2 c2B2 c2d2 c4 d2cd e2de ^f2ef g2f2 g2f2 e2g2  | 
w:   | 
g4 a2g2 =f2e2 d2e2 f2d8d2 a2a2 g2f2 e2e2  | \
w:   | 
d2c2 ded2 c4 d2d2 c2c2 _1/4B4 A2A4A2 c2B2 A2G2  | 
w:   | 
=f3e edd^c d8 z4 d8 e2d2 d6_1/4B2  | \
w:   | 
c2d2 c2_1/4B2 c4 d4 z4 z4 d2e2 ^f4 g2f2 g2f2  | 
w:   | 
e2e2 d2c2 d2e2 ^f2e2 f2g2 f2e2 f2g2 f2e2 f2e2 f2a2  | \
w:   | 
g2^f2 e2e2 =f2e2 d2e2 f2d6 z2z2 d4 f2e2 ded2  | 
w:   | 
c2d2 c2_1/4B2 z2g2 =f2ga g3f e2f2 e2d2 c4 d2d2 d4  | \
w:   | 
d2d4_1/4B2 c2d2 c2B2 c4 d6z2 g8 g2^f2  | 
w:   | 
g6^f2 g2f2 g2a2 c'2_1/4b2 a2g2 f2e2 f2g2 f2e2 f2e2  | \
w:   | 
^f2g2 f2e2 e2=f2 e2d2 e2f2 d6z2 z8 d4  | 
w:   | 
d6e2 e2d2 c2_1/4B2 d2c2 B2c2 d2c4z2 d4 a2a2  | \
w:   | 
g2=f2 e2d2 c2_1/4B2 cdc2 ded2 c4 d2d2 c2c2 B4 A2A4A2 c2B2 A2G2 f3e edd^c d8 z4 |
w:   | 


